src/components/icons/CalendarIcon.svg

<svg width="16" height="16" viewBox="0 0 16 16" fill="none" xmlns="http://www.w3.org/2000/svg">
<path fill-rule="evenodd" clip-rule="evenodd" d="M5.75 1C5.75 0.585786 5.41421 0.25 5 0.25C4.58579 0.25 4.25 0.585786 4.25 1V2H4C2.34315 2 1 3.34315 1 5V6V12C1 13.6569 2.34315 15 4 15H12C13.6569 15 15 13.6569 15 12V6V5C15 3.34315 13.6569 2 12 2H11.75V1C11.75 0.585786 11.4142 0.25 11 0.25C10.5858 0.25 10.25 0.585786 10.25 1V2H5.75V1ZM2.5 6H13.5V12C13.5 12.8284 12.8284 13.5 12 13.5H4C3.17157 13.5 2.5 12.8284 2.5 12V6ZM7.75 7.50003C7.33579 7.50003 7 7.83582 7 8.25003C7 8.66424 7.33579 9.00003 7.75 9.00003H11.25C11.6642 9.00003 12 8.66424 12 8.25003C12 7.83582 11.6642 7.50003 11.25 7.50003H7.75ZM7 11.25C7 10.8358 7.33579 10.5 7.75 10.5H11.25C11.6642 10.5 12 10.8358 12 11.25C12 11.6642 11.6642 12 11.25 12H7.75C7.33579 12 7 11.6642 7 11.25ZM6.09999 8.25003C6.09999 8.85754 5.60751 9.35003 4.99999 9.35003C4.39248 9.35003 3.89999 8.85754 3.89999 8.25003C3.89999 7.64252 4.39248 7.15003 4.99999 7.15003C5.60751 7.15003 6.09999 7.64252 6.09999 8.25003ZM4.99999 12.35C5.60751 12.35 6.09999 11.8575 6.09999 11.25C6.09999 10.6425 5.60751 10.15 4.99999 10.15C4.39248 10.15 3.89999 10.6425 3.89999 11.25C3.89999 11.8575 4.39248 12.35 4.99999 12.35Z" fill="#1B479E"/>
</svg>

<svg width="16" height="16" fill="none" xmlns="http://www.w3.org/2000/svg"><path fill-rule="evenodd" clip-rule="evenodd" d="M5.75 1a.75.75 0 00-1.5 0v1H4a3 3 0 00-3 3v7a3 3 0 003 3h8a3 3 0 003-3V5a3 3 0 00-3-3h-.25V1a.75.75 0 00-1.5 0v1h-4.5V1zM2.5 6h11v6a1.5 1.5 0 01-1.5 1.5H4A1.5 1.5 0 012.5 12V6zm5.25 1.5a.75.75 0 000 1.5h3.5a.75.75 0 000-1.5h-3.5zM7 11.25a.75.75 0 01.75-.75h3.5a.75.75 0 010 1.5h-3.5a.75.75 0 01-.75-.75zm-.9-3a1.1 1.1 0 11-2.2 0 1.1 1.1 0 012.2 0zM5 12.35a1.1 1.1 0 100-2.2 1.1 1.1 0 000 2.2z" fill="#1B479E"/></svg>
